X: 7
T: Thank God We're Surrounded By Water
Z: zoronic
S: https://thesession.org/tunes/2611#setting28618
R: jig
M: 6/8
L: 1/8
K: Gmaj
|:D2G GFG|ABc d2g|f/g/af ded|cAG FDC|
DCD GFG|ABc deg|fed cAF|1 ~G3 G2F:|2 ~G3 GBd|]
|:~g3 def|gfg a2g|f/g/af ded|cAG FGA|
|1 d2g gfg|aeg fag|fed cAF|GAG GBd :|
|2 B2G cBG|ABc deg|fed cAF|~G3 G2F |]
